events/images/grant.svg

<?xml version="1.0" encoding="UTF-8" standalone="no"?>
<svg
   width="492"
   height="492"
   overflow="hidden"
   version="1.1"
   id="svg5"
   sodipodi:docname="grant.svg"
   inkscape:version="1.4.3 (0d15f75, 2025-12-25)"
   xmlns:inkscape="http://www.inkscape.org/namespaces/inkscape"
   xmlns:sodipodi="http://sodipodi.sourceforge.net/DTD/sodipodi-0.dtd"
   xmlns="http://www.w3.org/2000/svg"
   xmlns:svg="http://www.w3.org/2000/svg">
  <defs
     id="defs5" />
  <sodipodi:namedview
     id="namedview5"
     pagecolor="#ffffff"
     bordercolor="#000000"
     borderopacity="0.25"
     inkscape:showpageshadow="2"
     inkscape:pageopacity="0.0"
     inkscape:pagecheckerboard="0"
     inkscape:deskcolor="#d1d1d1"
     inkscape:zoom="0.6875"
     inkscape:cx="245.81818"
     inkscape:cy="246.54545"
     inkscape:window-width="1024"
     inkscape:window-height="1186"
     inkscape:window-x="0"
     inkscape:window-y="25"
     inkscape:window-maximized="0"
     inkscape:current-layer="svg5" />
  <g
     id="g5"
     transform="translate(-394,-114)">
    <path
       d="M 394,270.043 C 394,183.863 463.863,114 550.043,114 H 729.957 C 816.137,114 886,183.863 886,270.043 V 449.957 C 886,536.137 816.137,606 729.957,606 H 550.043 C 463.863,606 394,536.137 394,449.957 Z"
       fill="#fceebd"
       fill-rule="evenodd"
       id="path1" />
    <g
       id="g4">
      <g
         id="g3">
        <g
           id="g2">
          <path
             d="m 777.812,363.938 c -1.968,0 -3.543,-1.182 -4.724,-2.363 -1.969,-1.969 -3.15,-5.513 -3.15,-9.056 0,-5.119 3.543,-9.057 6.693,-11.419 l 0.394,-0.394 c 7.481,3.938 8.663,7.875 8.663,11.419 0,6.3 -3.544,11.813 -7.876,11.813 z M 670.713,286.369 c -1.182,2.756 -4.332,4.725 -7.088,4.725 -1.181,0 -2.362,-0.394 -3.15,-0.788 -12.6,-5.906 -26.381,-9.056 -39.375,-9.056 -7.481,0 -14.962,1.181 -22.444,3.15 -4.331,1.181 -8.662,-1.181 -9.844,-5.512 -1.181,-4.332 1.182,-8.663 5.513,-9.844 8.662,-2.363 17.719,-3.544 26.381,-3.544 14.963,0 31.106,3.544 45.675,10.237 4.332,1.969 6.3,6.694 4.332,10.632 z m 135.843,30.319 c -9.843,-1.576 -22.05,1.181 -31.894,6.693 -9.056,-1.968 -22.837,-1.968 -35.437,2.363 -18.506,-44.1 -70.087,-75.994 -118.913,-75.994 -16.931,0 -33.862,3.938 -49.218,11.025 l -48.432,-22.837 c -3.149,-1.575 -6.693,1.574 -5.512,4.725 l 15.75,44.493 c -9.45,9.844 -17.325,21.263 -22.838,33.863 -0.787,2.362 -2.756,3.937 -5.512,4.725 l -14.175,3.544 c -7.087,1.574 -11.813,7.875 -11.813,15.356 v 30.712 c 0,7.088 4.726,13.388 11.813,15.356 l 14.569,3.544 c 2.362,0.788 4.331,2.363 5.512,4.725 6.694,15.356 16.932,29.138 29.531,40.556 1.182,1.182 2.363,2.757 2.757,4.726 l 5.906,35.831 c 0.788,3.937 3.938,6.693 7.875,6.693 h 25.988 c 3.937,0 7.087,-2.756 7.875,-6.693 l 1.968,-12.6 c 9.056,2.362 18.506,3.543 28.35,3.543 10.632,0 21.656,-1.574 31.894,-4.331 l 2.363,13.388 c 0.787,3.937 3.937,6.693 7.875,6.693 h 25.987 c 3.938,0 7.087,-2.756 7.875,-6.693 l 5.906,-35.831 c 0.394,-1.969 1.181,-3.544 2.756,-4.726 24.019,-20.868 40.95,-48.431 40.95,-79.537 0,-6.694 -0.787,-12.994 -2.362,-19.294 4.725,-1.575 9.844,-2.756 14.569,-2.756 -2.756,4.331 -4.331,9.056 -4.331,14.175 -0.394,7.875 2.756,15.356 7.874,20.869 4.332,4.331 9.844,7.087 15.75,7.087 12.994,0 23.626,-12.206 23.626,-27.562 0,-7.481 -2.757,-14.175 -8.269,-19.294 3.937,-0.787 7.481,-1.181 11.025,-0.787 4.331,0.787 8.269,-2.363 9.056,-6.694 0.394,-4.331 -2.362,-8.269 -6.694,-9.056 z"
             fill="#00883a"
             id="path2" />
        </g>
      </g>
    </g>
  </g>
</svg>

<svg width="1280" height="720" xmlns="http://www.w3.org/2000/svg" xmlns:xlink="http://www.w3.org/1999/xlink" overflow="hidden"><g><rect x="0" y="0" width="1280" height="720" fill="#FFFFFF"/><path d="M394 270.043C394 183.863 463.863 114 550.043 114L729.957 114C816.137 114 886 183.863 886 270.043L886 449.957C886 536.137 816.137 606 729.957 606L550.043 606C463.863 606 394 536.137 394 449.957Z" fill="#FCEEBD" fill-rule="evenodd"/><g><g><g><path d="M777.812 363.938C775.844 363.938 774.269 362.756 773.088 361.575 771.119 359.606 769.938 356.062 769.938 352.519 769.938 347.4 773.481 343.462 776.631 341.1L777.025 340.706C784.506 344.644 785.688 348.581 785.688 352.125 785.688 358.425 782.144 363.938 777.812 363.938ZM670.713 286.369C669.531 289.125 666.381 291.094 663.625 291.094 662.444 291.094 661.263 290.7 660.475 290.306 647.875 284.4 634.094 281.25 621.1 281.25 613.619 281.25 606.138 282.431 598.656 284.4 594.325 285.581 589.994 283.219 588.812 278.888 587.631 274.556 589.994 270.225 594.325 269.044 602.987 266.681 612.044 265.5 620.706 265.5 635.669 265.5 651.812 269.044 666.381 275.737 670.713 277.706 672.681 282.431 670.713 286.369ZM806.556 316.688C796.713 315.112 784.506 317.869 774.662 323.381 765.606 321.413 751.825 321.413 739.225 325.744 720.719 281.644 669.138 249.75 620.312 249.75 603.381 249.75 586.45 253.688 571.094 260.775L522.662 237.938C519.513 236.363 515.969 239.512 517.15 242.663L532.9 287.156C523.45 297 515.575 308.419 510.062 321.019 509.275 323.381 507.306 324.956 504.55 325.744L490.375 329.288C483.288 330.862 478.562 337.163 478.562 344.644L478.562 375.356C478.562 382.444 483.288 388.744 490.375 390.712L504.944 394.256C507.306 395.044 509.275 396.619 510.456 398.981 517.15 414.337 527.388 428.119 539.987 439.537 541.169 440.719 542.35 442.294 542.744 444.263L548.65 480.094C549.438 484.031 552.588 486.787 556.525 486.787L582.513 486.787C586.45 486.787 589.6 484.031 590.388 480.094L592.356 467.494C601.412 469.856 610.862 471.037 620.706 471.037 631.338 471.037 642.362 469.463 652.6 466.706L654.963 480.094C655.75 484.031 658.9 486.787 662.838 486.787L688.825 486.787C692.763 486.787 695.912 484.031 696.7 480.094L702.606 444.263C703 442.294 703.787 440.719 705.362 439.537 729.381 418.669 746.312 391.106 746.312 360 746.312 353.306 745.525 347.006 743.95 340.706 748.675 339.131 753.794 337.95 758.519 337.95 755.763 342.281 754.188 347.006 754.188 352.125 753.794 360 756.944 367.481 762.062 372.994 766.394 377.325 771.906 380.081 777.812 380.081 790.806 380.081 801.438 367.875 801.438 352.519 801.438 345.038 798.681 338.344 793.169 333.225 797.106 332.438 800.65 332.044 804.194 332.438 808.525 333.225 812.463 330.075 813.25 325.744 813.644 321.413 810.888 317.475 806.556 316.688Z" fill="#00883A"/></g></g></g></g></svg>
